images/quality/collaboration-icon.svg

<svg width="60" height="53" viewBox="0 0 60 53" fill="none" xmlns="http://www.w3.org/2000/svg">
<path d="M1.49927 3.30298L10.8332 5.306C12.0737 5.56565 13.3596 5.70166 14.6454 5.70166H31.4828" stroke="url(#paint0_linear)" stroke-width="3" stroke-miterlimit="10" stroke-linecap="round" stroke-linejoin="round"/>
<path d="M51.8718 31.4874L53.1712 29.651L57.8686 28.9675" stroke="url(#paint1_linear)" stroke-width="3" stroke-miterlimit="10" stroke-linecap="round" stroke-linejoin="round"/>
<path fill-rule="evenodd" clip-rule="evenodd" d="M12.3643 28.9956C11.7139 28.3452 10.6422 28.3452 9.99179 28.9956L8.45023 30.5371C7.79986 31.1875 7.79986 32.2592 8.45023 32.9096C9.09633 33.5557 10.1563 33.5654 10.8262 32.9061L12.3643 31.3681C13.0146 30.7177 13.0146 29.646 12.3643 28.9956ZM7.87046 26.8743C9.69241 25.0523 12.6636 25.0523 14.4856 26.8743C15.3517 27.7404 15.8061 28.8662 15.8487 30.0048C16.9874 30.0474 18.1134 30.5018 18.9795 31.368C19.8457 32.2341 20.3001 33.3601 20.3427 34.4988C21.4816 34.5412 22.6077 34.9956 23.474 35.8619C24.3401 36.728 24.7945 37.8537 24.8372 38.9923C25.9755 39.0351 27.101 39.4895 27.9669 40.3554C29.7889 42.1773 29.7889 45.1485 27.9669 46.9705L26.4282 48.5092C24.6012 50.354 21.6422 50.3439 19.8103 48.512C18.9469 47.6487 18.4927 46.5272 18.4475 45.3923C17.3113 45.3476 16.1872 44.8885 15.3174 44.0186C14.4512 43.1524 13.9968 42.0265 13.9542 40.8878C12.8153 40.8453 11.6892 40.3909 10.8229 39.5246C9.95682 38.6586 9.50245 37.5329 9.45974 36.3943C8.32242 36.3533 7.19797 35.9 6.32891 35.0309C5.12805 33.8301 4.71869 32.1299 5.10082 30.5887L1.24477 29.9222C0.42845 29.7811 -0.118933 29.005 0.02216 28.1887C0.163253 27.3723 0.939392 26.825 1.75572 26.966L6.89109 27.8536L7.87046 26.8743ZM21.9353 44.0158C21.922 44.0292 21.9087 44.0425 21.8953 44.0557C21.2815 44.7091 21.2936 45.7527 21.9316 46.3907C22.5999 47.0591 23.6523 47.0501 24.2979 46.3969L24.304 46.3907L24.3041 46.3907L25.8456 44.8491C26.496 44.1988 26.496 43.1271 25.8456 42.4767C25.2063 41.8373 24.1597 41.8265 23.5065 42.4442L23.474 42.477L21.9353 44.0158ZM21.3527 37.9832C21.9921 38.6227 22.0029 39.6693 21.385 40.3225L21.3518 40.3554L19.8103 41.8969C19.7958 41.9113 19.7815 41.9258 19.7673 41.9404C19.1191 42.5568 18.0942 42.5528 17.4387 41.8973C16.7883 41.2469 16.7883 40.1752 17.4387 39.5248L18.9802 37.9832C19.6306 37.3329 20.7023 37.3329 21.3527 37.9832ZM16.8582 33.4893C16.2078 32.8389 15.1361 32.8389 14.4857 33.4893L12.9442 35.0308C12.2938 35.6812 12.2938 36.7529 12.9442 37.4033C13.5946 38.0537 14.6663 38.0537 15.3167 37.4033L16.8582 35.8618C17.5086 35.2114 17.5086 34.1397 16.8582 33.4893Z" fill="url(#paint2_linear)"/>
<path d="M57.8689 3.56085C52.5608 4.92789 49.2304 6.29493 45.6383 3.56085C43.9222 2.1938 41.6244 1.16125 37.5088 2.96458C34.2802 4.37525 21.686 10.4251 16.4941 12.912C15.3452 13.4646 15.1853 15.0207 16.2033 15.7915C17.9484 17.1149 20.7698 18.7001 24.3473 18.7001C30.5136 18.7001 36.069 15.3698 36.069 15.3698L51.7609 31.0616C51.7609 31.0616 52.8371 33.2431 50.9465 35.1191C49.0559 36.9952 46.4091 36.2244 45.3038 35.1191C46.4091 36.2244 47.0635 38.9294 45.3911 40.5873C43.7186 42.2452 41.2027 42.0416 39.0649 39.9038C41.3336 42.1725 39.5739 44.7757 38.8031 45.5465C38.0323 46.3173 35.6327 47.9461 32.9859 44.4412C34.6583 46.1136 33.9312 51.0292 30.3391 51.0292C26.7469 51.0292 25.4863 47.6786 25.4863 47.6786" stroke="url(#paint3_linear)" stroke-width="3" stroke-miterlimit="10" stroke-linecap="round" stroke-linejoin="round"/>
<defs>
<linearGradient id="paint0_linear" x1="8.09565" y1="-5.09242" x2="15.2917" y2="8.70001" gradientUnits="userSpaceOnUse">
<stop stop-color="#AD844C"/>
<stop offset="0.479167" stop-color="#BDA180"/>
<stop offset="1" stop-color="#AD844C"/>
</linearGradient>
<linearGradient id="paint1_linear" x1="51.8718" y1="26.6901" x2="54.8146" y2="31.0617" gradientUnits="userSpaceOnUse">
<stop stop-color="#AD844C"/>
<stop offset="0.479167" stop-color="#BDA180"/>
<stop offset="1" stop-color="#AD844C"/>
</linearGradient>
<linearGradient id="paint2_linear" x1="14.6667" y1="25.5078" x2="14.6667" y2="49.8894" gradientUnits="userSpaceOnUse">
<stop stop-color="#AD844C"/>
<stop offset="0.354167" stop-color="#BDA180"/>
<stop offset="0.635417" stop-color="#AD844C"/>
</linearGradient>
<linearGradient id="paint3_linear" x1="36.6981" y1="2" x2="36.6981" y2="51.0292" gradientUnits="userSpaceOnUse">
<stop stop-color="#AD844C"/>
<stop offset="0.479167" stop-color="#BDA180"/>
<stop offset="1" stop-color="#AD844C"/>
</linearGradient>
</defs>
</svg>

<svg width="60" height="53" fill="none" xmlns="http://www.w3.org/2000/svg"><path d="M1.5 3.303l9.333 2.003c1.24.26 2.527.396 3.812.396h16.838" stroke="url(#paint0_linear)" stroke-width="3" stroke-miterlimit="10" stroke-linecap="round" stroke-linejoin="round"/><path d="M51.872 31.487l1.3-1.836 4.697-.683" stroke="url(#paint1_linear)" stroke-width="3" stroke-miterlimit="10" stroke-linecap="round" stroke-linejoin="round"/><path fill-rule="evenodd" clip-rule="evenodd" d="M12.364 28.996a1.686 1.686 0 00-2.372 0L8.45 30.537c-.65.65-.65 1.722 0 2.373a1.686 1.686 0 002.376-.004l1.538-1.538c.65-.65.65-1.722 0-2.372zM7.87 26.874a4.686 4.686 0 016.616 0 4.66 4.66 0 011.363 3.13 4.66 4.66 0 013.13 1.364 4.66 4.66 0 011.364 3.13 4.66 4.66 0 014.494 4.493 4.66 4.66 0 013.13 1.364 4.686 4.686 0 010 6.616l-1.539 1.538a4.66 4.66 0 01-6.618.003 4.66 4.66 0 01-1.362-3.12 4.675 4.675 0 01-3.13-1.373 4.66 4.66 0 01-1.364-3.131 4.66 4.66 0 01-4.494-4.494 4.648 4.648 0 01-3.131-1.363A4.682 4.682 0 015.1 30.589l-3.856-.667a1.5 1.5 0 11.51-2.956l5.136.888.98-.98zm14.065 17.142a1.687 1.687 0 00-.004 2.375 1.66 1.66 0 002.367.006l.006-.006 1.542-1.542c.65-.65.65-1.722 0-2.372a1.687 1.687 0 00-2.34-.033l-.032.033-1.539 1.539zm-.582-6.033c.64.64.65 1.686.032 2.34l-.033.032-1.542 1.542a1.66 1.66 0 01-2.372 0 1.686 1.686 0 010-2.372l1.542-1.542c.65-.65 1.722-.65 2.373 0zm-4.495-4.494a1.686 1.686 0 00-2.372 0l-1.542 1.542c-.65.65-.65 1.722 0 2.372.65.65 1.722.65 2.373 0l1.541-1.541c.65-.65.65-1.722 0-2.373z" fill="url(#paint2_linear)"/><path d="M57.869 3.56c-5.308 1.368-8.639 2.735-12.23 0-1.717-1.366-4.015-2.399-8.13-.595-3.229 1.41-15.823 7.46-21.015 9.947a1.69 1.69 0 00-.29 2.88c1.744 1.323 4.566 2.908 8.143 2.908 6.167 0 11.722-3.33 11.722-3.33l15.692 15.692s1.076 2.181-.815 4.057c-1.89 1.876-4.537 1.105-5.642 0 1.105 1.105 1.76 3.81.087 5.468-1.672 1.658-4.188 1.455-6.326-.683 2.269 2.268.509 4.872-.262 5.642-.77.771-3.17 2.4-5.817-1.105 1.672 1.673.945 6.588-2.647 6.588-3.592 0-4.853-3.35-4.853-3.35" stroke="url(#paint3_linear)" stroke-width="3" stroke-miterlimit="10" stroke-linecap="round" stroke-linejoin="round"/><defs><linearGradient id="paint0_linear" x1="8.096" y1="-5.092" x2="15.292" y2="8.7" gradientUnits="userSpaceOnUse"><stop stop-color="#AD844C"/><stop offset=".479" stop-color="#BDA180"/><stop offset="1" stop-color="#AD844C"/></linearGradient><linearGradient id="paint1_linear" x1="51.872" y1="26.69" x2="54.815" y2="31.062" gradientUnits="userSpaceOnUse"><stop stop-color="#AD844C"/><stop offset=".479" stop-color="#BDA180"/><stop offset="1" stop-color="#AD844C"/></linearGradient><linearGradient id="paint2_linear" x1="14.667" y1="25.508" x2="14.667" y2="49.889" gradientUnits="userSpaceOnUse"><stop stop-color="#AD844C"/><stop offset=".354" stop-color="#BDA180"/><stop offset=".635" stop-color="#AD844C"/></linearGradient><linearGradient id="paint3_linear" x1="36.698" y1="2" x2="36.698" y2="51.029" gradientUnits="userSpaceOnUse"><stop stop-color="#AD844C"/><stop offset=".479" stop-color="#BDA180"/><stop offset="1" stop-color="#AD844C"/></linearGradient></defs></svg>
